!!!!SEGMENT: pl-cz--iii-32--004_bolehovsky-josef--missa-ex-d-sanctus.krn
!!!cenid: 17xx:838
!!!COM: Bolehovský, Josef
!!!COM-rismid: pe30000404
!!!CDT: 1743-1811
!!!CNT: Czech
!!!OPR: Missa ex D
!!!OTL: Sanctus
!!!OMV: 004
!!!PDT:
!!!AGN: Sacred; Mass
!!!SMS-siglum: PL-CZ
!!!SMS-shelfmark: III-32
!!!SMS-shelfwork: 001-004 M
!!!NIFC-rismid: 300237605
!!!URL-scan: http://repozytorium.nifc.pl/skany/pl-cz-nut--iii-32
!!!ONB-nifc: UWAGA: części Mszy: Kyrie, Gloria, Credo, Sanctus, Benedictus, Agnus Dei, Dona nobis
!!!SMS-varianT:
!!!AIN: 1 alto 3 empty 2 oboe 1 organ 1 tenor 1 viola 2 violn 1 vox
!!!key:
**kern	**fba	**dynam	**kern	**kern	**dynam	**kern	**dynam	**kern	**text	**dynam	**kern	**text	**dynam	**kern	**text	**kern	**text	**dynam	**kern	**kern	**kern	**kern
*part12	*	*part12	*part11	*part10	*part10	*part9	*part9	*part8	*part8	*part8	*part7	*part7	*part7	*part6	*part6	*part5	*part5	*part5	*part4	*part3	*part2	*part1
*staff12	*	*	*staff11	*staff10	*	*staff9	*	*staff8	*staff8	*	*staff7	*staff7	*	*staff6	*staff6	*staff5	*staff5	*	*staff4	*staff3	*staff2	*staff1
*Iorgan	*	*	*Iviola	*Ivioln	*	*Ivioln	*	*Iempty	*	*	*Itenor	*	*	*Ialto	*	*Ivox	*	*	*Iempty	*Iempty	*Ioboe	*Ioboe
*I"Organo	*	*	*I"Alto Viola Obligata	*I"Violino Secundo	*	*I"Violino Primo	*	*I"Baſso.	*	*	*I"Tenore	*	*	*I"Alto	*	*I"Canto.	*	*	*I"Clarino Secundo in D:	*I"Clarino Primo in D:	*I"Oboe Secundo. obligato!	*I"Oboe Primo obl:
*I'org	*	*	*I'a-vla	*I'vl 2	*	*I'vl 1	*	*I'B	*	*	*I'T	*	*	*I'A	*	*I'S	*	*	*I'clno 2 in D	*I'clno 1 in D	*I'ob 2	*I'ob 1
*clefF4	*	*	*clefC3	*clefG2	*	*clefG2	*	*clefF4	*	*	*clefC4	*	*	*clefC3	*	*clefC1	*	*	*clefG2	*clefG2	*clefG2	*clefG2
*	*	*	*	*	*	*	*	*	*	*	*	*	*	*	*	*	*	*	*ITrd-1c-2	*ITrd-1c-2	*	*
*k[f#c#]	*	*	*k[f#c#]	*k[f#c#]	*	*k[f#c#]	*	*k[f#c#]	*	*	*k[f#c#]	*	*	*k[f#c#]	*	*k[f#c#]	*	*	*k[f#c#]	*k[f#c#]	*k[f#c#]	*k[f#c#]
*D:	*	*	*D:	*D:	*	*D:	*	*D:	*	*	*D:	*	*	*D:	*	*D:	*	*	*D:	*D:	*D:	*D:
*M4/4	*	*	*M4/4	*M4/4	*	*M4/4	*	*M4/4	*	*	*M4/4	*	*	*M4/4	*	*M4/4	*	*	*M4/4	*M4/4	*M4/4	*M4/4
*met(c)	*	*	*met(c)	*met(c)	*	*met(c)	*	*met(c)	*	*	*met(c)	*	*	*met(c)	*	*met(c)	*	*	*met(c)	*met(c)	*met(c)	*met(c)
=1	=1	=1	=1	=1	=1	=1	=1	=1	=1	=1	=1	=1	=1	=1	=1	=1	=1	=1	=1	=1	=1	=1
!	!	!	!LO:TX:rj:b:t=Sanctus	!	!	!	!	!	!	!	!	!	!	!	!	!	!	!	!	!	!LO:TX:rj:b:t=Sanctus	!LO:TX:rj:a:t=Sanctus
!	!	!	!LO:SIC:o:s:=:v:metrum z kropką	!LO:TX:rj:a:t=Sanctus	!	!	!	!	!	!	!	!	!	!LO:SIC:o:s:=:v:;2\, 4\, 8\, 16\&colon;global	!	!	!	!	!	!	!, 4\, 8\, 16\&colon;global	!, 4\, 8\, 16\&colon;global
!LO:TX:rj:b:t=Sanctus	!	!	!LO:SIC:o:s:=:v:laski w dół przeważnie na środku	!LO:TX:a:t=T&colon;	!	!LO:TX:rj:a:t=Sanctus	!	!	!	!	!LO:SIC:o:s:=:v:t. 1-6 zapisane za pomocą odnośnika "vi-de"	!	!	!LO:TX:a:t=T&colon;	!	!LO:TX:a:t=Tutti.	!	!	!LO:TX:rj:a:t=Sanctas	!LO:TX:rj:b:t=Sanctus	!LO:TX:a:t=Solo	!LO:TX:a:t=Solo.:
!LO:TX:a:t=adagio	!	!	!LO:TX:a:t=adagio	!LO:TX:rj:a:t=adaio:	!	!LO:TX:a:t=adaio	!	!	!	!	!LO:SIC:o:s:=:v:2\, 4\, 8\, 16\&colon;global	!	!	!LO:TX:rj:a:t= adagio	!	!LO:TX:rj:a:t=Adagio	!	!	!LO:TX:a:t=and(ante):	!LO:TX:rj:a:t=ada(gio):	!LO:TX:rj:a:t=adagio	!LO:TX:rj:a:t=adagio
!	!	!	!	!	!	!	!	!	!	!	!	!	!	!	!	!	!	!	!	!	!LO:SIC:o:s:=:v:all\right	!LO:SIC:o:s:=:v:all\right
4d\	.	.	4d\	4ff#\ 4a\ 4d\	.	4ff#/ 4a/ 4d/	.	4d\	Sanc-	.	4A\	Sanc-	.	4f#\	Sanc-	4dd\	San-	.	4dd\	4ff#\	4dd\	4dd\
4D/	.	.	4d\	4ff#\ 4a\ 4d\	.	4ff#/ 4a/ 4d/	.	4D/	-t(us)	.	4A\	-tus	.	4f#\	-tus	4dd\	-ct(us)	.	4dd\	4ff#\	4dd\	4dd\
2r	.	.	2r	8d/	.	8d/	.	2r	.	.	2r	.	.	2r	.	2r	.	.	2r	2r	16r	16r
.	.	.	.	.	.	.	.	.	.	.	.	.	.	.	.	.	.	.	.	.	16a/LL|	16ff#\LL|
!	!	!	!	!	!	!	!LO:DY:a	!	!	!	!	!	!	!	!	!	!	!	!	!	!	!
.	.	.	.	8r	.	8r	p	.	.	.	.	.	.	.	.	.	.	.	.	.	(16a/	(16ff#\
.	.	.	.	.	.	.	.	.	.	.	.	.	.	.	.	.	.	.	.	.	16f#/JJ)	16dd\JJ)
.	.	.	.	8d/	.	8d/	.	.	.	.	.	.	.	.	.	.	.	.	.	.	16r	16r
.	.	.	.	.	.	.	.	.	.	.	.	.	.	.	.	.	.	.	.	.	16a/LL|	16ff#\LL|
.	.	.	.	8r	.	8r	.	.	.	.	.	.	.	.	.	.	.	.	.	.	(16a/	(16ff#\
.	.	.	.	.	.	.	.	.	.	.	.	.	.	.	.	.	.	.	.	.	16f#/JJ)	16dd\JJ)
=2	=2	=2	=2	=2	=2	=2	=2	=2	=2	=2	=2	=2	=2	=2	=2	=2	=2	=2	=2	=2	=2	=2
!LO:TX:a:t=pedal	!	!	!	!	!	!	!	!	!	!	!	!	!	!	!	!	!	!	!	!LO:TX:a:t=T&colon;	!	!
2r	.	.	2r	8A/	.	8A/	.	2r	.	.	2r	.	.	2r	.	2r	.	.	2r	2r	16r	16r
.	.	.	.	.	.	.	.	.	.	.	.	.	.	.	.	.	.	.	.	.	16g/LL|	16ee\LL|
.	.	.	.	8r	.	8r	.	.	.	.	.	.	.	.	.	.	.	.	.	.	(16g/	(16ee\
.	.	.	.	.	.	.	.	.	.	.	.	.	.	.	.	.	.	.	.	.	16e/JJ)	16cc#\JJ)
.	.	.	.	8A/	.	8A/	.	.	.	.	.	.	.	.	.	.	.	.	.	.	16r	16r
.	.	.	.	.	.	.	.	.	.	.	.	.	.	.	.	.	.	.	.	.	16g/LL|	16ee\LL|
.	.	.	.	8r	.	8r	.	.	.	.	.	.	.	.	.	.	.	.	.	.	(16g/	(16ee\
.	.	.	.	.	.	.	.	.	.	.	.	.	.	.	.	.	.	.	.	.	16e/JJ)	16cc#\JJ)
!	!	!	!	!	!LO:DY:a	!	!LO:DY:a	!	!	!	!	!	!	!	!	!	!	!	!	!	!	!
*	*	*	*	*	*	*	*	*	*	*	*ij	*	*	*ij	*	*	*ij	*	*ij	*	*	*
4D\	.	.	4d\	4dd/ 4a/ 4d/	f	4dd/ 4a/ 4d/	f	4d\	anc-	.	4A\	Sanc-	.	4f#\	Sanc-	4dd\	San-	.	4dd\	4ff#\	4f#/	4ddT\
!	!	!	!	!	!	!	!	!	!	!	!	!	!	!	!	!	!	!	!	!	!LO:TX:a:t=T&colon;	!
4D\	.	.	4d\	4dd/ 4a/ 4d/	.	4dd/ 4a/ 4d/	.	4D\	-tus	.	4A\	-tus	.	4f#\	-tus	4dd\	-ctus	.	4dd\	4ff#\	4f#/	4dd\
*	*	*	*	*	*	*	*	*	*	*	*Xij	*	*	*Xij	*	*	*Xij	*	*Xij	*	*	*
=3	=3	=3	=3	=3	=3	=3	=3	=3	=3	=3	=3	=3	=3	=3	=3	=3	=3	=3	=3	=3	=3	=3
!	!	!	!	!	!	!	!	!	!	!	!LO:TX:a:t=1	!	!	!LO:TX:a:t=1	!	!LO:TX:a:t=1. (z łuczkiem)	!	!	!	!	!	!
8D\	.	.	8d\	16r	.	16r	.	1r	.	.	1r	.	.	1r	.	1r	.	.	1r	1r	16r	16r
!	!	!	!	!	!LO:DY:a	!	!LO:DY:a	!	!	!	!	!	!	!	!	!	!	!	!	!	!	!LO:TX:a:t=Solo
.	.	.	.	16f#/LL|	p	16a/LL	p	.	.	.	.	.	.	.	.	.	.	.	.	.	16ff#\LL	16aa\LL|
8r	.	.	8r	(16f#/	.	16a/	.	.	.	.	.	.	.	.	.	.	.	.	.	.	16ff#\	(16aa\
.	.	.	.	16d/JJ)	.	16f#/JJ	.	.	.	.	.	.	.	.	.	.	.	.	.	.	16dd\JJ	16ff#\JJ)
8D\	.	.	8d\	16r	.	16r	.	.	.	.	.	.	.	.	.	.	.	.	.	.	16r	16r
.	.	.	.	16f#/LL|	.	16a/LL	.	.	.	.	.	.	.	.	.	.	.	.	.	.	16ff#\LL	16aa\LL|
8r	.	.	8r	(16f#/	.	16a/	.	.	.	.	.	.	.	.	.	.	.	.	.	.	16ff#\	(16aa\
.	.	.	.	16d/JJ)	.	16f#/JJ	.	.	.	.	.	.	.	.	.	.	.	.	.	.	16dd\JJ	16ff#\JJ)
8AA/	.	.	8d\	16r	.	16r	.	.	.	.	.	.	.	.	.	.	.	.	.	.	16r	16r
.	.	.	.	16e/LL|	.	16g/LL	.	.	.	.	.	.	.	.	.	.	.	.	.	.	16ee\LL	16gg\LL|
8r	.	.	8r	(16e/	.	16g/	.	.	.	.	.	.	.	.	.	.	.	.	.	.	16ee\	(16gg\
.	.	.	.	16c#/JJ)	.	16e/JJ	.	.	.	.	.	.	.	.	.	.	.	.	.	.	16cc#\JJ	16ee\JJ)
8AA/	.	.	8A/	16r	.	16r	.	.	.	.	.	.	.	.	.	.	.	.	.	.	16r	16r
.	.	.	.	16e/LL|	.	16g/LL	.	.	.	.	.	.	.	.	.	.	.	.	.	.	16ee\LL	16gg\LL
8r	.	.	8r	(16e/	.	16g/	.	.	.	.	.	.	.	.	.	.	.	.	.	.	16ee\	16gg\
.	.	.	.	16c#/JJ)	.	16e/JJ	.	.	.	.	.	.	.	.	.	.	.	.	.	.	16cc#\JJ	16ee\JJ
=4	=4	=4	=4	=4	=4	=4	=4	=4	=4	=4	=4	=4	=4	=4	=4	=4	=4	=4	=4	=4	=4	=4
*	*	*	*	*	*	*	*	*	*ij	*	*	*	*	*	*	*	*ij	*	*	*2\right	*	*
!LO:TX:a:t=P:problem=mixed beam	!	!	!	!	!LO:DY:a	!LO:TX:a:t=P:problem=mixed beam	!LO:DY:a	!	!	!	!	!	!	!	!	!	!	!	!	!&colon;global	!	!
16.D/LL	.	.	8d\L	16.d/LL	f	16.d/LL	f	4D\	Sanc-	.	4d\	Sanc-	.	4a\	Do-	4ff#\	San-	.	4dd\	2ff#\	4dd\	4ff#\
32d\K	.	.	.	32a/K	.	32ff#\K	.	.	.	.	.	.	.	.	.	.	.	.	.	.	.	.
16.d\	.	.	8a\	16.a/	.	16.ff#\	.	.	.	.	.	.	.	.	.	.	.	.	.	.	.	.
32d\JJk	.	.	.	32a/JJk	.	32ff#\JJk	.	.	.	.	.	.	.	.	.	.	.	.	.	.	.	.
16.d\LL	.	.	8a\	16.a/LL	.	16.aa\LL	.	4d\	-tus	.	4d\	-tus	.	4a\	-mi-	4ff#\	-ctus	.	4dd\	.	4dd\	4ff#\
*	*	*	*	*	*	*	*	*	*Xij	*	*	*	*	*	*	*	*Xij	*	*	*	*	*
32d\K	.	.	.	32a/K	.	32ff#\K	.	.	.	.	.	.	.	.	.	.	.	.	.	.	.	.
16.d\	.	.	8a\J	16.a/	.	16.ff#\	.	.	.	.	.	.	.	.	.	.	.	.	.	.	.	.
32d\JJk	.	.	.	32a/JJk	.	32ff#\JJk	.	.	.	.	.	.	.	.	.	.	.	.	.	.	.	.
16.r	.	.	8r	16.r	.	16.r	.	8c#\	Do-	.	8c#\	do-	.	8a\	-nus	8ee\	Do-	.	4ee\	2ee\	4cc#\	4ee\
32c#\KLL	6	.	.	32a/KLL	.	32ee\KLL	.	.	.	.	.	.	.	.	.	.	.	.	.	.	.	.
16.c#\	.	.	8cc#\L	16.a/	.	16.ee\	.	16c#\	-m(i-	.	16c#\	-mi-	.	16a\	de-	16ee\	-mi-	.	.	.	.	.
.	.	.	.	.	.	.	.	16c#\	-n)us	.	16c#\	-nus	.	16a\	-us	16ee\	-n(us)	.	.	.	.	.
32c#\JJk	.	.	.	32a/JJk	.	32ee\JJk	.	.	.	.	.	.	.	.	.	.	.	.	.	.	.	.
*	*	*	*	*	*	*	*	*	*	*	*	*	*	*	*ij	*	*	*	*	*	*	*
16.c#\LL	.	.	8cc#\	16.a/LL	.	16.aa\LL	.	8c#\	De-	.	8c#\	de-	.	8a\	de-	8ee\	DE-	.	4ee\	.	4cc#\	4ee\
32c#\K	.	.	.	32a/K	.	32ee\K	.	.	.	.	.	.	.	.	.	.	.	.	.	.	.	.
16.c#\	.	.	8cc#\J	16.a/	.	16.ee\	.	8c#\	-us	.	8c#\	-us	.	8a\	-us	8ee\	-(US)	.	.	.	.	.
32c#\JJk	.	.	.	32a/JJk	.	32ee\JJk	.	.	.	.	.	.	.	.	.	.	.	.	.	.	.	.
*	*	*	*	*	*	*	*	*	*	*	*	*	*	*	*Xij	*	*	*	*	*	*	*
!LO:LB:g=original	!	!	!LO:LB:g=original	!	!	!LO:LB:g=original	!	!	!	!	!	!	!	!	!	!	!	!	!	!	!	!
=5	=5	=5	=5	=5	=5	=5	=5	=5	=5	=5	=5	=5	=5	=5	=5	=5	=5	=5	=5	=5	=5	=5
16.r	.	.	8r	16.r	.	16.r	.	4.B\	Sa-	.	4.B\	Sa-	.	4.a\	Sa-	4.dd\	Sa-	.	4dd\	2dd\	4.b\	4.dd\
32B\KLL	.	.	.	32a/KLL	.	32dd\KLL	.	.	.	.	.	.	.	.	.	.	.	.	.	.	.	.
16.B\	.	.	8b\L	16.a/	.	16.dd\	.	.	.	.	.	.	.	.	.	.	.	.	.	.	.	.
32B\JJk	.	.	.	32a/JJk	.	32dd\JJk	.	.	.	.	.	.	.	.	.	.	.	.	.	.	.	.
16.E\LL	7_ #_	.	8e\	16.b/LL	.	16.bb\LL	.	.	.	.	.	.	.	.	.	.	.	.	4ee\	.	.	.
.	.	.	.	.	.	8qqee/	.	.	.	.	.	.	.	.	.	.	.	.	.	.	.	.
32E\K	.	.	.	32b/K	.	32dd\K	.	.	.	.	.	.	.	.	.	.	.	.	.	.	.	.
16.E\	.	.	8e\J	16.b/	.	16.dd\	.	8E\	-ba-	.	8e\	-ba-	.	8g#X\	-ba-	8dd\	-ba-	.	.	.	8b\	8dd\
32E\JJk	x	.	.	32b/JJk	.	32dd\JJk	.	.	.	.	.	.	.	.	.	.	.	.	.	.	.	.
!	!	!	!	!LO:LB:g=original	!	!	!	!	!	!	!	!	!	!	!	!	!	!	!	!	!	!
!	!	!	!	!	!LO:DY:a	!	!	!LO:SIC:l:s=oth	!	!	!	!	!	!	!	!	!	!	!	!	!	!
4A\	.	.	4a\	8a/	fp	8cc#\	.	4A\	-th	.	4e\	-oth.	.	4a\	-oth	4cc#\	-oth	.	4a/	8ee\L	16r	16r
!	!	!	!	!	!	!	!	!	!	!	!	!	!	!	!	!	!	!	!	!	!LO:TX:a:t=Solo	!LO:TX:a:t=Solo
.	.	.	.	.	.	.	.	.	.	.	.	.	.	.	.	.	.	.	.	.	16cc#\LL	16ee\LL
.	.	.	.	8r	.	8r	.	.	.	.	.	.	.	.	.	.	.	.	.	8ee\J	16cc#\	16ee\
.	.	.	.	.	.	.	.	.	.	.	.	.	.	.	.	.	.	.	.	.	16a\JJ	16cc#\JJ
4r	.	.	4r	8A/	.	8A/	.	4r	.	.	4r	.	.	4r	.	4r	.	.	4r	4r	16r	16r
.	.	.	.	.	.	.	.	.	.	.	.	.	.	.	.	.	.	.	.	.	16cc#\LL	16ee\LL|
.	.	.	.	8r	.	8r	.	.	.	.	.	.	.	.	.	.	.	.	.	.	16cc#\	(16ee\
.	.	.	.	.	.	.	.	.	.	.	.	.	.	.	.	.	.	.	.	.	16a\JJ	16cc#\JJ)
!	!	!	!	!	!	!	!	!	!	!	!	!	!	!	!	!	!	!	!	!	!	!LO:LB:g=original
=6	=6	=6	=6	=6	=6	=6	=6	=6	=6	=6	=6	=6	=6	=6	=6	=6	=6	=6	=6	=6	=6	=6
!	!	!	!	!	!	!	!	!	!	!	!LO:SIC:o:s:=:v:powrót do zasadniczego zapisu partii oznaczony odnośnikiem "re-tro"	!	!	!	!	!	!	!	!	!	!	!
!	!	!	!	!	!	!	!	!	!	!	!LO:TX:a:t=Pleni Re	!	!	!LO:TX:a:t=1	!	!LO:TX:b:t=1.	!	!	!	!	!	!
8AA/	.	.	8A/	16r	.	16r	.	1r	.	.	1r	.	.	1r	.	1r;	.	.	8a/	8a/	16r	16r
.	.	.	.	16c#/LL	.	16e/LL	.	.	.	.	.	.	.	.	.	.	.	.	.	.	16cc#\LL	16ee\LL|
8r	.	.	8r	16c#/	.	16e/	.	.	.	.	.	.	.	.	.	.	.	.	8r	8r	16cc#\	(16ee\
.	.	.	.	16A/JJ	.	16c#/JJ	.	.	.	.	.	.	.	.	.	.	.	.	.	.	16a\JJ	16cc#\JJ)
8AA/	.	.	8A/	16r	.	16r	.	.	.	.	.	.	.	.	.	.	.	.	8a/	8a/	16r	16r
.	.	.	.	16e/LL	.	16e/LL	.	.	.	.	.	.	.	.	.	.	.	.	.	.	16cc#\LL	16ee\LL|
8r	.	.	8r	16e/	.	16c#/	.	.	.	.	.	.	.	.	.	.	.	.	8r	8r	16cc#\	(16ee\
.	.	.	.	16A/JJ	.	16c#/JJ	.	.	.	.	.	.	.	.	.	.	.	.	.	.	16a\JJ	16cc#\JJ)
!	!	!	!	!	!	!	!	!	!	!	!	!	!	!	!	!	!	!	!LO:LB:g=original	!	!	!
4AA;/	.	.	4A/	4A/	.	4c#;/	.	.	.	.	.	.	.	.	.	.	.	.	4a/	4a;/	4a/	16r
.	.	.	.	.	.	.	.	.	.	.	.	.	.	.	.	.	.	.	.	.	.	4cc#;\
4r	.	.	4r	4r;	.	4r	.	.	.	.	.	.	.	.	.	.	.	.	4r	4r	4r	.
!	!	!	!	!	!	!	!	!	!	!	!	!	!	!	!	!	!	!	!	!	!	!LO:SIC:o=4
.	.	.	.	.	.	.	.	.	.	.	.	.	.	.	.	.	.	.	.	.	.	8.r
!	!	!	!	!	!	!	!	!LO:LB:g=original	!	!	!	!	!	!LO:LB:g=original	!	!LO:LB:g=original	!	!	!	!	!LO:LB:g=original	!
=7||	=7||	=7||	=7||	=7||	=7||	=7||	=7||	=7||;	=7||	=7||	=7||	=7||	=7||	=7||	=7||	=7||	=7||	=7||	=7||	=7||;;	=7||	=7||
*clefF4	*	*	*	*	*	*clefG2	*	*	*	*	*	*	*	*	*	*clefC1	*	*	*clefG2	*	*	*
*k[f#c#]	*	*	*	*	*	*k[f#c#]	*	*	*	*	*	*	*	*	*	*k[f#c#]	*	*	*	*	*	*k[f#c#]
*M3/4	*	*	*M3/4	*M3/4	*	*M3/4	*	*M3/4	*	*	*M3/4	*	*	*M3/4	*	*M3/4	*	*	*M3/4	*M3/4	*M3/4	*M3/4
!	!	!	!	!	!	!	!	!	!	!	!	!	!	!LO:SIC:o:s:=:v:kolejność klucz, znaki, metrum	!	!	!	!	!	!	!	!
!	!	!	!LO:SIC:o:s:=:v:kolejność klucz, znaki, metrum	!LO:TX:a:t=Pleni	!	!	!	!LO:SIC:o:s:=:v:kolejność klucz, znaki, metrum	!	!	!LO:TX:a:t=tro	!	!	!LO:TX:a:t=allo	!	!LO:SIC:o:s:=:v:kolejność klucz, znaki, metrum	!	!	!LO:SIC:o:s:=:v:kolejność klucz, znaki, metrum	!LO:SIC:o:s:=:v:kolejność klucz, znaki, metrum	!LO:SIC:o:s:=:v:kolejność klucz, znaki, metrum	!
!LO:SIC:o:s:=:v:kolejność klucz, znaki, metrum	!	!	!LO:TX:rj:b:t=Pleni	!LO:TX:a:t=all(egr)o	!	!LO:SIC:o:s:=:v:kolejność klucz, znaki, metrum	!	!LO:TX:a:t=all(egr)o	!	!	!LO:TX:a:t=all(egr)o	!	!	!LO:SIC:o=metrum 3/8	!	!LO:TX:a:t= all(egr)o Solo	!	!	!LO:TX:rj:a:t=Pleni	!LO:TX:rj:a:t=Plen	!LO:TX:a:t=Pleni	!LO:TX:b:t=Pleni
4D\	.	.	4d\	4f#/	.	4dd\	.	4D\	Ple-	.	4A\	Ple-	.	4f#\	Ple-	4dd\	Ple-	.	4f#/	4dd\	4f#/	4dd\
4F#\	6	.	4f#\	4a/	.	4dd\	.	4F#\	-ni	.	4A\	-ni	.	4a\	-ni	4dd\	-ni	.	4f#/	4dd\	4a/	4dd\
4D\	.	.	4d\	4f#/	.	4dd\	.	4D\	ſu(n)t	.	4A\	sunt	.	4f#\	ſunt	4dd\	ſu(n)t	.	4f#/	4dd\	4f#/	4dd\
!	!	!	!	!	!	!	!	!	!	!	!	!	!	!	!	!	!	!	!	!LO:LB:g=original	!	!
=8	=8	=8	=8	=8	=8	=8	=8	=8	=8	=8	=8	=8	=8	=8	=8	=8	=8	=8	=8	=8	=8	=8
!	!	!	!	!	!	!	!	!	!	!	!LO:SIC:l:s=cae	!	!	!LO:SIC:l:s=cae	!	!	!	!	!	!	!	!
4G\	3	.	4g\	4b/	.	4ee\	.	4G\	Cae-	.	4G/	Cӧ-	.	4b\	Cӧ-	4dd\	Coe-	.	4a/	4ee\	4b/	4ee\
4F#\	6	.	4f#\	4a/	.	4dd\	.	4F#\	-li	.	4A/	-li	.	4a\	-li	4dd\	-li	.	4f#/	4dd\	4a/	4dd\
4r	.	.	4r	4r	.	4r	.	4r	.	.	4r	.	.	4r	.	4r	.	.	4r	4r	4r	4r
=9	=9	=9	=9	=9	=9	=9	=9	=9	=9	=9	=9	=9	=9	=9	=9	=9	=9	=9	=9	=9	=9	=9
*	*	*	*	*	*	*Xtuplet	*	*	*	*	*	*	*	*	*	*	*	*	*	*	*	*
!	!	!	!	!	!	!	!	!	!	!	!	!	!	!	!	!	!	!	!	!	!LO:TX:a:t=2	!LO:TX:a:t=2
!	!	!	!	!	!	!	!	!	!	!	!	!	!	!	!	!	!	!	!	!	!LO:N:vis=0	!LO:N:vis=0
4r	.	.	4g\	4b/	.	4dd\	.	4r	.	.	4r	.	.	4r	.	4r	.	.	4r	4r	1.r	1.r
!	!	!	!	!	!	!LO:TUP:a:problem=klamra łukowa triole-global	!	!	!	!	!	!	!	!	!	!	!	!	!	!	!	!
4r	.	.	4g\	4b/	.	12bb\L	.	4r	.	.	4r	.	.	4r	.	4r	.	.	4r	4r	.	.
.	.	.	.	.	.	12aa\	.	.	.	.	.	.	.	.	.	.	.	.	.	.	.	.
.	.	.	.	.	.	12gg\J	.	.	.	.	.	.	.	.	.	.	.	.	.	.	.	.
8r	.	.	4g\	4b/	.	12ff#\L	.	8r	.	.	4A/	et	.	8r	.	8r	.	.	8r	8r	.	.
.	.	.	.	.	.	12ee\	.	.	.	.	.	.	.	.	.	.	.	.	.	.	.	.
8F#\	6	.	.	.	.	.	.	8F#\	et	.	.	.	.	8f#\	et	8ee\	et	.	8dd\	8ff#\	.	.
.	.	.	.	.	.	12dd\J	.	.	.	.	.	.	.	.	.	.	.	.	.	.	.	.
=10	=10	=10	=10	=10	=10	=10	=10	=10	=10	=10	=10	=10	=10	=10	=10	=10	=10	=10	=10	=10	=10	=10
4E\	6	.	4g\	4g/	.	4cc#\	.	4E\	ter-	.	4A/	ter-	.	4e\	ter-	4cc#\	ter-	.	4a/	4ee\	.	.
!	!	!	!	!	!	!LO:TX:a:t=P:problem=mixed beam	!	!	!	!	!	!	!	!	!	!	!	!	!	!	!	!
4D\	.	.	4f#\	16f#/LL	.	16dd\LL	.	4D\	-ra	.	4A/	-ra	.	4f#\	-ra	4dd\	-ra	.	4dd\	4ff#\	.	.
.	.	.	.	16d/	.	16d/	.	.	.	.	.	.	.	.	.	.	.	.	.	.	.	.
.	.	.	.	16e/	.	16e/	.	.	.	.	.	.	.	.	.	.	.	.	.	.	.	.
.	.	.	.	16f#/JJ	.	16f#/JJ	.	.	.	.	.	.	.	.	.	.	.	.	.	.	.	.
4r	.	.	4r	16g/LL	.	16g/LL	.	4r	.	.	4r	.	.	4r	.	4r	.	.	4r	4r	.	.
.	.	.	.	16a/	.	16a/	.	.	.	.	.	.	.	.	.	.	.	.	.	.	.	.
.	.	.	.	16b/	.	16b/	.	.	.	.	.	.	.	.	.	.	.	.	.	.	.	.
.	.	.	.	16cc#/JJ	.	16cc#/JJ	.	.	.	.	.	.	.	.	.	.	.	.	.	.	.	.
!	!	!	!LO:LB:g=original	!	!	!	!	!	!	!	!	!	!	!	!	!	!	!	!	!	!	!
=11	=11	=11	=11	=11	=11	=11	=11	=11	=11	=11	=11	=11	=11	=11	=11	=11	=11	=11	=11	=11	=11	=11
*	*	*	*	*	*	*	*	*	*ij	*	*	*	*	*	*	*	*	*	*	*	*	*
!	!	!LO:DY:a	!	!	!	!	!LO:DY:a	!	!	!LO:DY:a	!	!	!LO:DY:a	!	!	!	!	!LO:DY:rj:a	!LO:N:vis=00	!LO:N:vis=00	!	!
4D\	.	p	4d\	4dd\	.	4dd\	p	4D\	Ple-	p	4A/	Ple-	p	4f#\	Ple-	4dd\	Ple-	p	0.r	0.r	4f#/	4dd\
4F#\	6	.	4f#\	4a/	.	4dd\	.	4F#\	-ni	.	4A/	-ni	.	4a\	-ni	4dd\	-ni	.	.	.	4dd\	4ff#\
4D\	.	.	4a\	4f#/	.	4dd\	.	4D\	sunt	.	4A/	sunt	.	4f#\	ſunt	4dd\	ſu(n)t	.	.	.	4dd\	4ff#\
!	!	!	!	!	!	!LO:LB:g=original	!	!	!	!	!	!	!	!	!	!	!	!	!	!	!	!
=12	=12	=12	=12	=12	=12	=12	=12	=12	=12	=12	=12	=12	=12	=12	=12	=12	=12	=12	=12	=12	=12	=12
!	!	!	!	!	!LO:DY:a	!	!	!	!	!	!	!	!	!LO:SIC:l:s=cae	!	!	!	!	!	!	!	!
4G\	3	.	4g\	4b/	p	4ee\	.	4G\	cae-	.	4G/	.	.	4b\	Cӧ-	4dd\	Coe-	.	.	.	4ee\	4gg\
4F#\	6	.	4f#\	4a/	.	4dd\	.	4F#\	-li	.	4A/	.	.	4a\	-li	4dd\	-li	.	.	.	4dd\	4ff#\
4r	.	.	4r	4r	.	4r	.	4r	.	.	4r	.	.	4r	.	4r	.	.	.	.	4r	4r
=13	=13	=13	=13	=13	=13	=13	=13	=13	=13	=13	=13	=13	=13	=13	=13	=13	=13	=13	=13	=13	=13	=13
!	!	!	!	!	!	!LO:TX:b:t=x	!	!	!	!	!	!	!	!	!	!	!	!	!	!	!LO:TX:a:t=3	!LO:TX:a:t=3
!	!	!	!	!	!	!	!	!	!	!	!	!	!	!	!	!	!	!	!	!	!LO:N:vis=0	!LO:N:vis=0
4r	.	.	4g\	4B/	.	4e/	.	4r	.	.	4r	.	.	4r	.	4r	.	.	.	.	1.r	1.r
4r	.	.	4G/	4B/	.	12b/L	.	4r	.	.	4r	.	.	4r	.	4r	.	.	.	.	.	.
.	.	.	.	.	.	12a/	.	.	.	.	.	.	.	.	.	.	.	.	.	.	.	.
.	.	.	.	.	.	12g/J	.	.	.	.	.	.	.	.	.	.	.	.	.	.	.	.
8r	.	.	4G/	4B/	.	12f#/L	.	8r	.	.	8r	.	.	8r	.	8r	.	.	.	.	.	.
.	.	.	.	.	.	12e/	.	.	.	.	.	.	.	.	.	.	.	.	.	.	.	.
8F#\	6	.	.	.	.	.	.	8F#\	et	.	8A\	et	.	8f#\	et	8dd\	et	.	.	.	.	.
.	.	.	.	.	.	12d/J	.	.	.	.	.	.	.	.	.	.	.	.	.	.	.	.
!LO:LB:g=original	!	!	!	!	!	!	!	!	!	!	!	!	!	!LO:LB:g=original	!	!	!	!	!	!	!	!
=14	=14	=14	=14	=14	=14	=14	=14	=14	=14	=14	=14	=14	=14	=14	=14	=14	=14	=14	=14	=14	=14	=14
4E\	6	.	4A/	4A/	.	4c#/	.	4E\	ter-	.	4A\	ter-	.	4e\	ter-	4cc#\	ter-	.	.	.	.	.
4D\	.	.	4A/	4d/	.	8d/L	.	4D\	-ra	.	4A\	-ra	.	4f#\	-ra	8dd\	-ra	.	.	.	.	.
.	.	.	.	.	.	8a/	.	.	.	.	.	.	.	.	.	8a\L	Glo-	.	.	.	.	.
4r	.	.	4r	4r	.	8b/	.	4r	.	.	4r	.	.	4r	.	8b\	.	.	.	.	.	.
.	.	.	.	.	.	8cc#/J	.	.	.	.	.	.	.	.	.	8cc#\J	.	.	.	.	.	.
*	*	*	*	*	*	*	*	*	*Xij	*	*	*	*	*	*	*	*	*	*	*	*	*
!	!	!	!	!	!	!	!	!LO:LB:g=original	!	!	!	!	!	!	!	!	!	!	!	!	!	!
=15	=15	=15	=15	=15	=15	=15	=15	=15	=15	=15	=15	=15	=15	=15	=15	=15	=15	=15	=15	=15	=15	=15
!	!	!	!	!	!LO:DY:a	!	!	!	!	!	!	!	!	!	!	!	!	!	!	!	!	!
8r	.	.	8r	8r	f	4.dd\	.	8r	.	.	4r	.	.	8r	.	4.dd\	.	.	4r	4r	2.r	2.r
8D\L	.	.	8d\L	8f#/L	.	.	.	8D\	Glo-	.	.	.	.	8f#\L	Glo-	.	.	.	.	.	.	.
8F#\	6_	.	8f#\	8a/	.	.	.	8F#\L	-ri-	.	4A\	Ple-	.	8a\	.	.	.	.	4dd\	4ff#\	.	.
8E\	.	.	8e\	8g/	.	8dd\	.	8E\J	.	.	.	.	.	8g\J	.	8dd\	-ri-	.	.	.	.	.
8F#\	.	.	8f#\	8a/	.	4dd\	.	8F#\L	-a	.	8A\	-ni	.	8a\	-ri-	4dd\	-a	.	4dd\	4ff#\	.	.
8D\J	x	.	8d\J	8f#/J	.	.	.	8D\J	.	.	8A\	Sunt	.	8f#\	-a	.	.	.	.	.	.	.
!	!	!	!	!LO:LB:g=original	!	!	!	!	!	!	!LO:LB:g=original	!	!	!	!	!LO:LB:g=original	!	!	!	!	!	!
=16	=16	=16	=16	=16	=16	=16	=16	=16	=16	=16	=16	=16	=16	=16	=16	=16	=16	=16	=16	=16	=16	=16
!	!	!	!	!	!	!	!	!	!	!	!LO:SIC:l:s=cae	!	!	!	!	!	!	!	!	!	!	!
4A\	4	.	4a\	4e/	.	4dd\	.	4A\	tu-	.	4A\	Cӧ-	.	4e\	tu-	4dd\	Tu-	.	4dd\	4ff#\	4dd\	4ff#\
.	3	.	.	.	.	.	.	.	.	.	.	.	.	.	.	.	.	.	.	.	.	.
4AA/	.	.	4A/	4e/	.	8cc#\L	.	4AA/	-a	.	4A\	-li	.	4e\	-a	8cc#\	-a	.	4a/	4ee\	4cc#\	4ee\
.	.	.	.	.	.	8a\	.	.	.	.	.	.	.	.	.	8a\L	Glo-	.	.	.	.	.
4r	.	.	4r	4r	.	8cc#\	.	4r	.	.	4r	.	.	4r	.	8b\	.	.	4r	4r	4r	4r
.	.	.	.	.	.	8dd\J	.	.	.	.	.	.	.	.	.	8cc#\J	.	.	.	.	.	.
=17	=17	=17	=17	=17	=17	=17	=17	=17	=17	=17	=17	=17	=17	=17	=17	=17	=17	=17	=17	=17	=17	=17
*	*	*	*	*	*	*2\right	*	*	*	*	*	*	*	*	*	*	*	*	*	*	*	*
!	!	!	!	!	!	!	!	!LO:TX:b:t=x	!	!	!	!	!	!	!	!	!	!	!	!	!	!
8r	.	.	8r	4r	.	2ee\	.	8r	.	.	4r	.	.	4r	.	4.ee\	.	.	4r	4r	4r	4r
8A\L	.	.	8A/L	.	.	.	.	8A\	Glo-	.	.	.	.	.	.	.	.	.	.	.	.	.
8c#\	6	.	8c#/	4e/	.	.	.	8c#\L	-ri-	.	4c#\	Glo-	.	4e\	Glo-	.	.	.	4ee\	4gg\	4ee\	4gg\
8B\	.	.	8B/	.	.	.	.	8B\J	.	.	.	.	.	.	.	8g/	-ri-	.	.	.	.	.
8c#\	.	.	8c#/	4e/	.	4g/	.	8c#\L	-a	.	8c#\	-ri-	.	8e\	-ri-	4g/	-a	.	4ee\	4ff#\	4ee\	4gg\
8A\J	.	.	8A/J	.	.	.	.	8A\J	.	.	8c#\	-a	.	8e\	-a	.	.	.	.	.	.	.
=18	=18	=18	=18	=18	=18	=18	=18	=18	=18	=18	=18	=18	=18	=18	=18	=18	=18	=18	=18	=18	=18	=18
4d\	.	.	4d\	4e/	.	4g/	.	4d\	tu-	.	4A/	tu-	.	4e\	tu-	4g/	Tu-	.	4ee\	4gg\	4ee\	4gg\
!	!	!	!	!	!	!LO:TX:a:t=P:problem=mixed beam	!	!	!	!	!	!	!	!	!	!	!	!	!	!	!	!
4D/	.	.	4d\	4d/	.	8f#/L	.	4D/	-a	.	4A/	-a	.	4d\	-a	8f#/	-a	.	4dd\	4ff#\	4dd\	4ff#\
.	.	.	.	.	.	8dd\	.	.	.	.	.	.	.	.	.	8dd\L	Glo-	.	.	.	.	.
4r	.	.	4r	4r	.	8ff#\	.	4r	.	.	4r	.	.	4r	.	8ff#\	.	.	4r	4r	4r	4r
.	.	.	.	.	.	8gg\J	.	.	.	.	.	.	.	.	.	8gg\J	.	.	.	.	.	.
!	!	!	!LO:LB:g=original	!	!	!	!	!	!	!	!	!	!	!	!	!	!	!	!	!	!	!LO:LB:g=original
=19	=19	=19	=19	=19	=19	=19	=19	=19	=19	=19	=19	=19	=19	=19	=19	=19	=19	=19	=19	=19	=19	=19
*	*	*	*	*tremolo	*	*tremolo	*	*	*	*	*2\right	*	*	*2\right	*	*2\right	*	*	*	*	*	*2\right
8r	.	.	8r	4r	.	16aa\LL	.	8r	.	.	4r	.	.	4r	.	2.aa\	.	.	4r	4r	4r	2.aa\
.	.	.	.	.	.	16aa\	.	.	.	.	.	.	.	.	.	.	.	.	.	.	.	.
8D\L	.	.	8d\L	.	.	16aa\	.	8D\L	Glo-	.	.	.	.	.	.	.	.	.	.	.	.	.
.	.	.	.	.	.	16aa\	.	.	.	.	.	.	.	.	.	.	.	.	.	.	.	.
*	*	*	*	*tremolo	*	*	*	*	*	*	*	*	*	*	*	*	*	*	*	*	*	*
!	!	!	!	!	!	!	!	!	!	!	!	!	!	!LO:N:vis=2.	!	!	!	!	!	!	!	!
8F#\	6_	.	8f#\	16a/LL	.	16aa\	.	8F#\	.	.	2d\	Glo-	.	2a\	Glo-	.	.	.	4ff#\	4aa\	2a/	.
.	.	.	.	16a/	.	16aa\	.	.	.	.	.	.	.	.	.	.	.	.	.	.	.	.
8E\	.	.	8e\	16a/	.	16aa\	.	8E\	.	.	.	.	.	.	.	.	.	.	.	.	.	.
.	.	.	.	16a/	.	16aa\	.	.	.	.	.	.	.	.	.	.	.	.	.	.	.	.
8F#\	.	.	8f#\	16a/	.	16aa\	.	8F#\	.	.	.	.	.	.	.	.	.	.	4ff#\	4aa\	.	.
.	.	.	.	16a/	.	16aa\	.	.	.	.	.	.	.	.	.	.	.	.	.	.	.	.
8D\J	x	.	8d\J	16a/	.	16aa\	.	8D\J	.	.	.	.	.	.	.	.	.	.	.	.	.	.
.	.	.	.	16a/JJ	.	16aa\JJ	.	.	.	.	.	.	.	.	.	.	.	.	.	.	.	.
!	!	!	!	!	!	!	!	!	!	!	!	!	!	!LO:TX:b:t=V&colon; Cito	!	!	!	!	!	!	!	!
!	!	!	!	!	!	!	!	!	!	!	!	!	!	!LO:PB:g=original	!	!	!	!	!	!	!	!
=20	=20	=20	=20	=20	=20	=20	=20	=20	=20	=20	=20	=20	=20	=20	=20	=20	=20	=20	=20	=20	=20	=20
8G\L	9	.	8g\L	16b/LL	.	16aa\LL	.	8G\L	.	.	4d\	.	.	2.b\	.	4aa\	.	.	4gg\	4bb\	2.b/	4aa\
.	.	.	.	16b/	.	16aa\	.	.	.	.	.	.	.	.	.	.	.	.	.	.	.	.
8B\	.	.	8b\	16b/	.	16aa\	.	8B\	.	.	.	.	.	.	.	.	.	.	.	.	.	.
.	.	.	.	16b/	.	16aa\JJ	.	.	.	.	.	.	.	.	.	.	.	.	.	.	.	.
!	!	!	!	!	!	!	!	!	!	!	!	!	!	!	!	!LO:N:vis=2.	!	!	!	!	!	!
8E\	8_	.	8e\	16b/	.	16gg\LL	.	8E\	.	.	2e\	.	.	.	.	2gg\	.	.	4r	4r	.	2gg\
.	.	.	.	16b/	.	16gg\	.	.	.	.	.	.	.	.	.	.	.	.	.	.	.	.
8G\	.	.	8g\	16b/	.	16gg\	.	8G\	.	.	.	.	.	.	.	.	.	.	.	.	.	.
.	.	.	.	16b/	.	16gg\	.	.	.	.	.	.	.	.	.	.	.	.	.	.	.	.
8E\	.	.	8d\	16b/	.	16gg\	.	8E\	.	.	.	.	.	.	.	.	.	.	4r	4r	.	.
.	.	.	.	16b/	.	16gg\	.	.	.	.	.	.	.	.	.	.	.	.	.	.	.	.
8G\J	x	.	8f#\J	16b/	.	16gg\	.	8G\J	.	.	.	.	.	.	.	.	.	.	.	.	.	.
.	.	.	.	16b/JJ	.	16gg\JJ	.	.	.	.	.	.	.	.	.	.	.	.	.	.	.	.
!	!	!	!	!	!	!	!	!LO:LB:g=original	!	!	!	!	!	!	!	!	!	!	!LO:LB:g=original	!	!	!
=21	=21	=21	=21	=21	=21	=21	=21	=21	=21	=21	=21	=21	=21	=21	=21	=21	=21	=21	=21	=21	=21	=21
8F#\L	9	.	8f#\L	16a/LL	.	16gg\LL	.	8F#\L	.	.	4c#\	.	.	2.a\	.	4gg\	.	.	4ff#\	4aa\	2.a/	4gg\
.	.	.	.	16a/	.	16gg\	.	.	.	.	.	.	.	.	.	.	.	.	.	.	.	.
8A\	.	.	8a\	16a/	.	16gg\	.	8A\	.	.	.	.	.	.	.	.	.	.	.	.	.	.
.	.	.	.	16a/	.	16gg\JJ	.	.	.	.	.	.	.	.	.	.	.	.	.	.	.	.
8D\	8	.	8d\	16a/	.	16ff#\LL	.	8D\	.	.	2d\	.	.	.	.	2ff#\	.	.	4r	4r	.	2ff#\
.	.	.	.	16a/	.	16ff#\	.	.	.	.	.	.	.	.	.	.	.	.	.	.	.	.
8F#\	.	.	8f#\	16a/	.	16ff#\	.	8F#\	.	.	.	.	.	.	.	.	.	.	.	.	.	.
.	.	.	.	16a/	.	16ff#\	.	.	.	.	.	.	.	.	.	.	.	.	.	.	.	.
8D\	.	.	8d\	16a/	.	16ff#\	.	8D\	.	.	.	.	.	.	.	.	.	.	4r	4r	.	.
.	.	.	.	16a/	.	16ff#\	.	.	.	.	.	.	.	.	.	.	.	.	.	.	.	.
8F#\J	.	.	8f#\J	16a/	.	16ff#\	.	8F#\J	.	.	.	.	.	.	.	.	.	.	.	.	.	.
.	.	.	.	16a/JJ	.	16ff#\JJ	.	.	.	.	.	.	.	.	.	.	.	.	.	.	.	.
=22	=22	=22	=22	=22	=22	=22	=22	=22	=22	=22	=22	=22	=22	=22	=22	=22	=22	=22	=22	=22	=22	=22
8E\L	9	.	8e\L	16g/LL	.	16ff#\LL	.	8E\L	.	.	4B\	.	.	2.g\	.	4ff#\	.	.	4ee\	4ff#\	2.g/	4ff#\
.	.	.	.	16g/	.	16ff#\	.	.	.	.	.	.	.	.	.	.	.	.	.	.	.	.
8G\	.	.	8g\	16g/	.	16ff#\	.	8G\	.	.	.	.	.	.	.	.	.	.	.	.	.	.
.	.	.	.	16g/	.	16ff#\JJ	.	.	.	.	.	.	.	.	.	.	.	.	.	.	.	.
8C#\	8_	.	8d\	16g/	.	16ee\LL	.	8C#\	.	.	2c#\	.	.	.	.	2ee\	.	.	4r	4r	.	2ee\
.	.	.	.	16g/	.	16ee\	.	.	.	.	.	.	.	.	.	.	.	.	.	.	.	.
8E\	.	.	8e\	16g/	.	16ee\	.	8E\	.	.	.	.	.	.	.	.	.	.	.	.	.	.
.	.	.	.	16g/	.	16ee\	.	.	.	.	.	.	.	.	.	.	.	.	.	.	.	.
8C#\	.	.	8c#\	16g/	.	16ee\	.	8AA\	.	.	.	.	.	.	.	.	.	.	4r	4r	.	.
.	.	.	.	16g/	.	16ee\	.	.	.	.	.	.	.	.	.	.	.	.	.	.	.	.
8E\J	.	.	8e\J	16g/	.	16ee\	.	8C#\J	.	.	.	.	.	.	.	.	.	.	.	.	.	.
.	.	.	.	16g/JJ	.	16ee\JJ	.	.	.	.	.	.	.	.	.	.	.	.	.	.	.	.
=23	=23	=23	=23	=23	=23	=23	=23	=23	=23	=23	=23	=23	=23	=23	=23	=23	=23	=23	=23	=23	=23	=23
8D\L	9	.	8d\L	16f#/LL	.	16ee\LL	.	8D\L	.	.	4B\	.	.	2.f#\	.	4ee\	.	.	4dd\	4ff#\	2.f#/	4ee\
.	.	.	.	16f#/	.	16ee\	.	.	.	.	.	.	.	.	.	.	.	.	.	.	.	.
8E\	.	.	8e\	16f#/	.	16ee\	.	8E\J	.	.	.	.	.	.	.	.	.	.	.	.	.	.
.	.	.	.	16f#/	.	16ee\JJ	.	.	.	.	.	.	.	.	.	.	.	.	.	.	.	.
8F#\	8_	.	8f#\	16f#/	.	16dd\LL	.	8F#\L	-ri-	.	2A\	.	.	.	.	2dd\	.	.	4r	4r	.	2dd\
.	.	.	.	16f#/	.	16dd\	.	.	.	.	.	.	.	.	.	.	.	.	.	.	.	.
8E\	.	.	8e\	16f#/	.	16dd\	.	8E\J	.	.	.	.	.	.	.	.	.	.	.	.	.	.
.	.	.	.	16f#/	.	16dd\	.	.	.	.	.	.	.	.	.	.	.	.	.	.	.	.
8F#\	.	.	8f#\	16f#/	.	16dd\	.	8F#\L	-a	.	.	.	.	.	.	.	.	.	4dd\	4ff#\	.	.
.	.	.	.	16f#/	.	16dd\	.	.	.	.	.	.	.	.	.	.	.	.	.	.	.	.
8D\J	x	.	8d\J	16f#/	.	16dd\	.	8D\J	.	.	.	.	.	.	.	.	.	.	.	.	.	.
.	.	.	.	16f#/JJ	.	16dd\JJ	.	.	.	.	.	.	.	.	.	.	.	.	.	.	.	.
*	*	*	*	*Xtremolo	*	*Xtremolo	*	*	*	*	*	*	*	*	*	*	*	*	*	*	*	*
=24	=24	=24	=24	=24	=24	=24	=24	=24	=24	=24	=24	=24	=24	=24||	=24	=24	=24	=24	=24	=24	=24	=24
4G\	6	.	4g\	4g/	.	8b\L	.	4G\	tu-	.	8B\	-ri-	.	8g\	-ri-	8b\	-ri-	.	4ee\	4gg\	4g/	8r
.	.	.	.	.	.	8ee\J	.	.	.	.	8B\	-a	.	8g\	-a	8ee\	-a	.	.	.	.	8ee\
4A\	4	.	4a\	4f#/	.	4dd\	.	4A\	.	.	2A\	tu-	.	(4f#\	tu-	(4dd\	Tu-	.	4dd\	4ff#\	4f#/	4dd\
4AA/	3	.	4a\	4e/	.	4cc#\	.	4AA/	.	.	.	.	.	4e\)	.	4cc#\)	.	.	4a/	4ee\	4e/	4cc#\
!LO:LB:g=original	!	!	!	!	!	!LO:LB:g=original	!	!	!	!	!	!	!	!	!	!	!	!	!	!	!	!
=25	=25	=25	=25	=25||:	=25	=25	=25	=25	=25	=25	=25	=25	=25	=25	=25	=25	=25	=25	=25	=25	=25	=25
!	!	!	!	!	!	!	!	!	!	!	!LO:SIC:s=4A	!	!	!	!	!LO:TX:a:t=problem&colon;cezura niżej	!	!	!	!	!	!
4D\	.	.	4a\	4f#/	.	4dd\	.	4D/	-a	.	4B\	-a	.	4f#\	-a	4dd,<\	-a	.	4dd\	4ee\	4f#/	4dd\
*clefC4	*	*	*	*	*	*	*	*	*	*	*	*	*	*	*	*	*	*	*	*	*	*
4d\	5 3	.	4r	4r	.	4r	.	4r	.	.	2d\	o-	.	4f#\	o-	4a\	O-	.	4r	4r	4f#/	4b\
4d\	6 4	.	4r	4r	.	4r	.	4r	.	.	.	.	.	4g\	-San-	4b\	.	.	4r	4r	4g/	4b\
!	!	!	!LO:LB:g=original	!	!	!	!	!	!	!	!	!	!	!	!	!	!	!	!	!LO:LB:g=original	!LO:LB:g=original	!
=26	=26	=26	=26	=26	=26	=26	=26	=26	=26	=26	=26	=26	=26	=26	=26	=26	=26	=26	=26	=26	=26	=26
!	!	!	!	!	!	!	!	!	!	!	!	!	!	!	!	!	!	!	!	!LO:TX:a:t=1	!	!
4d\	n7 5	.	4r	4r	.	4r	.	4r	.	.	4d\	-San-	.	4a\	.	4ccn\	-ſan-	.	2.r	2.r	4a/	4ccn\
4d\	6 4	.	8r	8r	.	8r	.	4r	.	.	4d\	-a	.	4g\	-na	4b\	-na	.	.	.	4g/	4b\
.	.	.	8f#\L	8a/L	.	8dd\L	.	.	.	.	.	.	.	.	.	.	.	.	.	.	.	.
*clefF4	*	*	*	*	*	*	*	*	*	*	*	*	*	*	*	*	*	*	*	*	*	*
*	*	*	*	*	*	*	*	*	*	*	*	*	*	*	*	*custos:dd#	*	*	*	*	*	*
8r	.	.	8f#\	8a/	.	8dd\	.	8r	.	.	8r	.	.	8r	.	8r	.	.	.	.	4r	4r
!	!	!	!	!	!	!	!	!	!	!	!	!	!	!	!	!LO:LB:g=original	!	!	!	!	!	!
!	!	!	!	!	!	!	!	!	!	!	!	!	!	!	!	!LO:SIC:o:s:=:v: belka przez kreskę	!	!	!	!	!	!
8F#\	6\	.	8f#\J	8a/J	.	8dd#X\J	.	8F#\	in	.	8A/	in	.	8f#\	in	8dd#X\L	In	.	.	.	.	.
!	!	!	!	!	!	!	!	!LO:LB:g=original	!	!	!LO:LB:g=original	!	!	!	!	!	!	!	!	!	!	!
=27	=27	=27	=27	=27	=27	=27	=27	=27	=27	=27	=27	=27	=27	=27	=27	=27	=27	=27	=27	=27	=27	=27
4G\	6 5	.	4g\	8b/L	.	8ee\L	.	8G\	ex-	.	8A/	ex-	.	8g\	.	8ee\J	.	.	4ee\	4gg\	4r	4r
.	.	.	.	16a/L	.	16ff#\L	.	8G\	-Cel-	.	8B/	-cel-	.	8g\	ex-	16ff#\LL	Ex-	.	.	.	.	.
.	.	.	.	16g/JJ	.	16gg\JJ	.	.	.	.	.	.	.	.	.	16gg\JJ	.	.	.	.	.	.
4A\	x 4	.	4a\	4f#/	.	4ddn\	.	4A\	.	.	2A/	.	.	4f#\	-cel-	(4ddn\	-cel-	.	4dd\	4ff#\	4dd\	4ff#\
4AA/	x 3	.	4a\	4e/	.	4cc#\	.	4AA/	.	.	.	.	.	4e\	.	4cc#X\)	.	.	4a/	4ee\	4cc#\	4ee\
!	!	!	!	!	!	!	!	!	!	!	!	!	!	!LO:LB:g=original	!	!	!	!	!	!	!	!
=28	=28	=28	=28	=28:||	=28	=28	=28	=28	=28	=28	=28	=28	=28	=28	=28	=28	=28	=28	=28	=28	=28	=28
!	!	!	!	!LO:TX:a:t=P:problem=takty 28-30 zapisane powtórką	!	!	!	!	!	!	!	!	!	!	!	!	!	!	!	!	!	!
4D\	.	.	4a\	4f#/yy	.	4dd\	.	4D\	-ſis	.	4A/	-sis	.	4f#\	-sis	4dd\	-ſis	.	4dd\	4ff#\	4dd\	4ff#\
*clefC4	*	*	*	*	*	*	*	*	*	*	*	*	*	*	*	*	*	*	*	*	*	*
4d\	5 3	.	4r	4ryy	.	4r	.	4r	.	.	2d\	o-	.	4f#\	o-	(4a\	O-	.	4r	4r	4f#/	4a\
4d\	6 4	.	4r	4ryy	.	4r	.	4r	.	.	.	.	.	4g\	.	4b\)	.	.	4r	4r	4g/	4b\
=29	=29	=29	=29	=29	=29	=29	=29	=29	=29	=29	=29	=29	=29	=29	=29	=29	=29	=29	=29	=29	=29	=29
!	!	!	!	!	!	!	!	!	!	!	!	!	!	!	!	!	!	!	!	!LO:TX:a:t=1	!	!
4d\	n7 5	.	4r	4ryy	.	4r	.	4r	.	.	4d\	-san-	.	4a\	-San-	4ccn\	-ſan-	.	2.r	2.r	4a/	4ccn\
4d\	6 4	.	8r	8ryy	.	8r	.	4r	.	.	4d\	-a	.	4g\	-na	4b\	-na	.	.	.	4g/	4b\
!	!	!	!	!	!	!	!LO:DY:a	!	!	!	!	!	!	!	!	!	!	!	!	!	!	!
.	.	.	8f#\L	8a/Lyy	.	8dd\L	p	.	.	.	.	.	.	.	.	.	.	.	.	.	.	.
*clefF4	*	*	*	*	*	*	*	*	*	*	*	*	*	*	*	*	*	*	*	*	*	*
8r	.	.	8f#\	8a/yy	.	8dd\	.	8r	.	.	8r	.	.	8r	.	8r	.	.	.	.	4r	4r
!	!	!	!	!	!	!	!	!	!	!	!	!	!	!LO:SIC:o:s:=:v: belka przez kreskę	!	!LO:SIC:o:s:=:v: belka przez kreskę	!	!	!	!	!	!
8F#\	6\	.	8f#\J	8a/Jyy	.	8dd#X\J	.	(8F#\	in	.	8A\	in	.	8f#\	in	8dd#X\	In	.	.	.	.	.
=30	=30	=30	=30	=30	=30	=30	=30	=30	=30	=30	=30	=30	=30	=30	=30	=30	=30	=30	=30	=30	=30	=30
!	!	!	!	!	!	!	!LO:DY:a	!	!	!	!	!	!	!	!	!	!	!	!	!	!	!
4G\	6 5	.	4g\	8b/Lyy	.	8ee\L	f	8G\)	ex-	.	8B\	ex-	.	8g\	.	8ee\	.	.	8gg\L	8bb\L	4r	4r
.	.	.	.	16a/Lyy	.	16ff#\L	.	8G\	.	.	8B\	.	.	8g\	ex-	16ff#\LL	Ex-	.	16ff#\L	16aa\L	.	.
.	.	.	.	16g/JJyy	.	16gg\JJ	.	.	.	.	.	.	.	.	.	16gg\JJ	-cel-	.	16ee\JJ	16gg\JJ	.	.
4A\	4	.	4a\	4f#/yy	.	4ddn\	.	4A\	-Cel-	.	2A\	-cel-	.	4f#\	-cel-	(4dd\	.	.	4dd\	4ff#\	4dd\	4ff#\
4AA/	3	.	4a\	4e/yy	.	4cc#\	.	4AA/	-ſis	.	.	.	.	4e\	-sis	4cc#X\)	.	.	4a/	4ee\	4cc#\	4ee\
=31	=31	=31	=31	=31	=31	=31	=31	=31	=31	=31	=31	=31	=31	=31	=31	=31	=31	=31	=31	=31	=31	=31
4D\	5_ 3_	.	4a\	4f#/	.	4dd\	.	4D\	in	.	4A\	-sis	.	4f#\	in	4dd\	-ſis	.	4f#/	4dd\	4dd\	4ff#\
4D\	.	.	4d\	4f#/	.	4a/	.	4D\	ex-	.	4d\	in	.	4f#\	ex-	4a\	In	.	4d/	4dd\	4r	4r
4D\	.	.	4d\	4f#/	.	4a/	.	4D\	-Cel-	.	4d\	ex-	.	4f#\	.	4a\	Ex-	.	4d/	4dd\	4r	4r
=32	=32	=32	=32	=32	=32	=32	=32	=32	=32	=32	=32	=32	=32	=32	=32	=32	=32	=32	=32	=32	=32	=32
*2\right	*	*	*2\right	*	*	*	*	*2\right	*	*	*	*	*	*	*	*	*	*	*	*	*	*
!	!	!	!	!	!	!	!	!	!	!	!	!	!	!	!	!	!	!	!	!	!LO:TX:a:t=1	!LO:TX:a:t=1
2D\	6 4	.	2.d\	2g/	.	2b/	.	2.D\	-ſis	.	2.d\	-cel-	.	2.g\	-cel-	2.b\	-cel-	.	4d/	4dd\	2.r	2.r
.	.	.	.	.	.	.	.	.	.	.	.	.	.	.	.	.	.	.	4r	4r	.	.
4D\	.	.	.	4b/	.	4gg\	.	.	.	.	.	.	.	.	.	.	.	.	4r	4r	.	.
!	!	!	!	!	!	!	!	!	!	!	!	!	!	!	!	!	!	!	!	!	!	!LO:LB:g=original
=33	=33	=33	=33	=33	=33	=33	=33	=33	=33	=33	=33	=33	=33	=33	=33	=33	=33	=33	=33	=33	=33	=33
!	!	!	!	!	!	!	!	!	!	!	!	!	!	!	!	!LO:SIC:s=4a	!	!	!	!	!	!LO:TX:a:t=Solo
4D\	5 3	.	4d\	4a/	.	4ff#/ 4a/ 4d/	.	4D\	.	.	4d\	-ſis	.	4f#\	-sis	4b\	-ſis	.	4d/	4dd\	4r	4r
!	!	!	!	!	!LO:DY:a	!	!LO:DY:a	!	!	!	!	!	!	!	!	!	!	!	!	!	!	!
4r	.	.	4r	(8f#/L	p	8a/L	p	4r	.	.	4r	.	.	4r	.	4r	.	.	4r	4r	8ff#\L	(8aa\L
.	.	.	.	8e/)	.	8g/	.	.	.	.	.	.	.	.	.	.	.	.	.	.	8ee\	8gg\
4r	.	.	4r	(8e/	.	8g/	.	4r	.	.	4r	.	.	4r	.	4r	.	.	4r	4r	8ee\	8gg\
.	.	.	.	8d/J)	.	8f#/J	.	.	.	.	.	.	.	.	.	.	.	.	.	.	8dd\J	8ff#\J)
!	!	!	!	!	!	!	!	!	!	!	!	!	!	!	!	!	!	!	!LO:LB:g=original	!	!	!
=34	=34	=34	=34	=34	=34	=34	=34	=34	=34	=34	=34	=34	=34	=34	=34	=34	=34	=34	=34	=34	=34	=34
!LO:TX:a:t=pedal	!	!	!	!	!	!	!	!	!	!	!LO:TX:a:t=2	!	!	!LO:TX:a:t=2	!	!LO:TX:a:t=2.	!	!	!	!	!	!
!	!	!	!	!	!	!	!	!LO:N:vis=0	!	!	!LO:N:vis=0	!	!	!LO:N:vis=0	!	!LO:N:vis=0	!	!	!	!	!	!
4D\	.	.	4d\	4d/	.	4f#/	.	1.r	.	.	1.r	.	.	1.r	.	1.r	.	.	4d/	4d/	4dd\	4ff#\
4D\	.	.	4d\	4d/	.	4f#/	.	.	.	.	.	.	.	.	.	.	.	.	4d/	4d/	4dd\	4ff#\
4D\	.	.	4d\	4d/	.	4f#/	.	.	.	.	.	.	.	.	.	.	.	.	4d/	4d/	4dd\	4ff#\
=35	=35	=35	=35	=35	=35	=35	=35	=35	=35	=35	=35	=35	=35	=35	=35	=35	=35	=35	=35	=35	=35	=35
*	*	*	*	*	*	*	*	*	*	*	*	*	*	*	*	*	*	*	*	*	*2\right	*
4D\	.	.	4d\	2d/	.	2f#/	.	.	.	.	.	.	.	.	.	.	.	.	4d/	4d/	2.dd\	2ff#\
4r	.	.	4r	.	.	.	.	.	.	.	.	.	.	.	.	.	.	.	4r	4r	.	.
4r	.	.	4r	4r	.	4r	.	.	.	.	.	.	.	.	.	.	.	.	4r	4r	.	4r
!	!	!	!	!	!	!	!	!LO:TX:t=Tacet \nBenedictus	!	!	!	!	!	!LO:TX:t=Benedictus \nTacet	!	!LO:TX:t=Benedictus \nTacet.	!	!	!LO:TX:t=Bened Tacet	!LO:TX:a:t=Bened Tacet	!LO:TX:a:t=Benendictus \nTacet	!LO:TX:a:t=Flauto Solo Benedictus
==	==	==	==	==	==	==	==	==	==	==	==	==	==	==	==	==	==	==	==	==	==	==
*-	*-	*-	*-	*-	*-	*-	*-	*-	*-	*-	*-	*-	*-	*-	*-	*-	*-	*-	*-	*-	*-	*-
!!!system-decoration: [(s1,s2)][(s3,s4)][(s5,s6,s7,s8)][(s9,s10,s11)][(s12)]
!!!RDF**kern: > = above
!!!RDF**kern: < = below
!!!RDF**dynam: p = p:
!!!RDF**dynam: f = f:
!!!EED: Leszek Kubiak
!!!EST: 2020-12-16
!!!ENC: Kamil Watkowski
!!!END: 2020-06-23
!!!RDF**kern: | = vertical stroke
